images/fb.svg

<svg width="13" height="24" viewBox="0 0 13 24" fill="none" xmlns="http://www.w3.org/2000/svg">
<path d="M12.2703 0.00481985L9.26632 0C5.89146 0 3.71048 2.23762 3.71048 5.70092V8.32943H0.690119C0.429124 8.32943 0.217773 8.54102 0.217773 8.80201V12.6104C0.217773 12.8714 0.429365 13.0828 0.690119 13.0828H3.71048V22.6926C3.71048 22.9536 3.92183 23.1649 4.18283 23.1649H8.12354C8.38453 23.1649 8.59588 22.9533 8.59588 22.6926V13.0828H12.1274C12.3884 13.0828 12.5997 12.8714 12.5997 12.6104L12.6012 8.80201C12.6012 8.6767 12.5513 8.55668 12.4629 8.468C12.3744 8.37931 12.2539 8.32943 12.1286 8.32943H8.59588V6.10121C8.59588 5.03024 8.85109 4.48656 10.2462 4.48656L12.2698 4.48584C12.5306 4.48584 12.7419 4.27425 12.7419 4.01349V0.477165C12.7419 0.216652 12.5308 0.00530184 12.2703 0.00481985Z" fill="#2F6A95"/>
</svg>

<svg xmlns="http://www.w3.org/2000/svg" width="13" height="24" viewBox="0 0 13 24"><g><g opacity=".6"><path fill="#7a858d" d="M12.273.005L9.269 0C5.894 0 3.713 2.238 3.713 5.7v2.63H.693a.472.472 0 0 0-.473.472v3.808c0 .261.212.473.472.473h3.02v9.61c0 .26.212.472.473.472h3.94a.472.472 0 0 0 .473-.472v-9.61h3.532a.472.472 0 0 0 .472-.473l.001-3.808a.473.473 0 0 0-.472-.473H8.598V6.101c0-1.07.255-1.614 1.65-1.614l2.024-.001c.26 0 .472-.212.472-.473V.477a.472.472 0 0 0-.471-.472z"/></g></g></svg>
